src/images/svg/blog/star-icon.svg

<svg width="16" height="16" viewBox="0 0 16 16" fill="none" xmlns="http://www.w3.org/2000/svg">
<path d="M8.00066 12.8149L3.82494 15.0102C3.45813 15.203 3.02941 14.8916 3.09946 14.4831L3.89696 9.83337L0.518728 6.54042C0.22197 6.25115 0.385725 5.74716 0.795835 5.68757L5.46443 5.00918L7.55229 0.778717C7.7357 0.407094 8.26562 0.407094 8.44903 0.778717L10.5369 5.00918L15.2055 5.68757C15.6156 5.74716 15.7793 6.25115 15.4826 6.54042L12.1044 9.83337L12.9019 14.4831C12.9719 14.8916 12.5432 15.203 12.1764 15.0102L8.00066 12.8149Z" fill="#FFAD3A"/>
</svg>

<svg width="16" height="16" fill="none" xmlns="http://www.w3.org/2000/svg"><path d="M8 12.815L3.826 15.01a.5.5 0 01-.726-.527l.798-4.65L.519 6.54a.5.5 0 01.277-.852l4.668-.679L7.552.78a.5.5 0 01.897 0l2.088 4.23 4.668.679a.5.5 0 01.278.852l-3.379 3.293.798 4.65a.5.5 0 01-.726.527l-4.175-2.195z" fill="#FFAD3A"/></svg>
